browser/images/lc_wrappropertypanel.svg

<svg viewBox="0 0 24 24" xmlns="http://www.w3.org/2000/svg"><g stroke-linecap="round" stroke-linejoin="round"><path d="m2.5 3.5h19zm0 3h19zm12 3h7zm0 3h7zm0 3h7zm-12 3h19zm0 3h19z" stroke="#3a3a38"/><path d="m2.5 8.5h9v8h-9z" fill="#83beec" stroke="#0063b1"/><path d="m18 13.5a4.5 4.5 0 0 0 -4.5 4.5 4.5 4.5 0 0 0 4.5 4.5 4.5 4.5 0 0 0 4.5-4.5 4.5 4.5 0 0 0 -4.5-4.5z" fill="#fff" stroke="#fff" stroke-width="3"/><path d="m17.4 13.5-.4 2.1-1.76-1.2-.84.84 1.2 1.76-2.1.4v1.2l2.1.4-1.2 1.76.84.84 1.76-1.2.4 2.1h1.2l.4-2.1 1.76 1.2.84-.84-1.2-1.76 2.1-.4v-1.2l-2.1-.4 1.2-1.76-.84-.84-1.76 1.2-.4-2.1zm.6 3a1.5 1.5 0 0 1 1.5 1.5 1.5 1.5 0 0 1 -1.5 1.5 1.5 1.5 0 0 1 -1.5-1.5 1.5 1.5 0 0 1 1.5-1.5z" fill="none" stroke="#1e8bcd"/></g></svg>

<?xml-stylesheet type="text/css" href="icons.css" ?>
<svg viewBox="0 0 24 24" xmlns="http://www.w3.org/2000/svg">
  <path
	 class="icn icn--line-color" 
     d="m 2.5,3.5 h 19 z m 0,3 h 19 z m 12,3 h 7 z m 0,3 h 7 z m 0,3 h 7 z m -12,3 h 19 z m 0,3 h 19 z"
     stroke="#3a3a38" 
	 stroke-linecap="round" 
	 stroke-linejoin="round"
     />
  <path
	 class="icn icn--highlight-color"  
     d="m 2.5,8.5 h 9 v 8 h -9 z"
     fill="#83beec" 
     stroke="#1e8bcd" 
	 stroke-linecap="round" 
	 stroke-linejoin="round"
     />
  <g id="symbol-background"
	 class="icn icn--background"
     fill="#fff" 
     stroke="#fff" 
     stroke-width="3px"
	 stroke-linecap="round" 
	 stroke-linejoin="round"
      >
      <path d="M 18 13.5 A 4.5 4.5 0 0 0 13.5 18 A 4.5 4.5 0 0 0 18 22.5 A 4.5 4.5 0 0 0 22.5 18 A 4.5 4.5 0 0 0 18 13.5 z " />
  </g>
  <g id="symbol"
	 class="icn icn--highlight-color-line"  
     fill="none" 
     stroke="#1e8bcd" 
	 stroke-linecap="round" 
	 stroke-linejoin="round"
      >
      <path d="M 17.4 13.5 L 17 15.6 L 15.24 14.4 L 14.4 15.24 L 15.6 17 L 13.5 17.4 L 13.5 18.6 L 15.6 19.0 L 14.4 20.76 L 15.24 21.6 L 17 20.4 L 17.4 22.5 L 18.6 22.5 L 19.0 20.4 L 20.76 21.6 L 21.6 20.76 L 20.4 19.0 L 22.5 18.6 L 22.5 17.4 L 20.4 17 L 21.6 15.24 L 20.76 14.4 L 19.0 15.6 L 18.6 13.5 L 17.4 13.5 z M 18 16.5 A 1.5 1.5 0 0 1 19.5 18 A 1.5 1.5 0 0 1 18 19.5 A 1.5 1.5 0 0 1 16.5 18 A 1.5 1.5 0 0 1 18 16.5 z " />
  </g>
</svg>
